icons/mobile/24/svg/bookmark-24.svg

<svg width="24" height="24" viewBox="0 0 24 24" fill="none" xmlns="http://www.w3.org/2000/svg">
<path fill-rule="evenodd" clip-rule="evenodd" d="M11.9999 3C12.8639 3 13.6281 3.51927 13.9481 4.32227L15.454 8.10547L20.0272 8.40137C20.8621 8.45543 21.5879 9.00107 21.8729 9.79199C22.1579 10.5799 21.9602 11.425 21.3563 11.998C21.0793 12.261 20.7836 12.525 20.4686 12.79C19.5807 13.5379 18.6239 14.2091 17.617 14.792L18.7049 19.0596C18.9149 19.8836 18.6279 20.7174 17.9559 21.2344C17.58 21.5232 17.1266 21.6689 16.6708 21.6689C16.3142 21.6687 15.9553 21.5802 15.6297 21.3975C15.0318 21.0625 14.4427 20.6956 13.8797 20.3086C13.2319 19.8637 12.6007 19.3801 11.9999 18.8682C11.399 19.3801 10.7678 19.8647 10.1209 20.3086C9.55795 20.6956 8.96895 21.0625 8.37095 21.3975C7.62801 21.8143 6.71472 21.7493 6.0438 21.2344C5.3718 20.7174 5.08478 19.8836 5.29478 19.0596L6.38169 14.792C5.37582 14.209 4.41903 13.5369 3.53013 12.79C3.2162 12.5261 2.92133 12.261 2.64439 11.998C2.04041 11.4261 1.84185 10.581 2.12681 9.79199C2.41281 9.00099 3.13849 8.45537 3.97349 8.40137L8.54575 8.10547L10.0516 4.32129C10.3706 3.51935 11.1359 3.00008 11.9999 3ZM11.9989 4.75C11.9109 4.75004 11.7526 4.77894 11.6766 4.96777L9.96568 9.26562C9.84068 9.57862 9.54682 9.79443 9.20982 9.81543L4.08482 10.1475C3.87537 10.1616 3.79548 10.3196 3.77134 10.3867C3.73834 10.4777 3.72454 10.6115 3.84654 10.7275C4.09853 10.9665 4.36814 11.2082 4.65513 11.4502C5.62609 12.2671 6.68753 12.985 7.80747 13.583C8.16226 13.7731 8.34199 14.1814 8.24302 14.5713L6.99009 19.4912C6.9442 19.6731 7.02927 19.7837 7.10923 19.8447C7.16623 19.8887 7.32048 19.9781 7.51548 19.8701C8.06728 19.5602 8.60992 19.2231 9.12974 18.8662C9.77274 18.4242 10.4001 17.9398 10.9911 17.4268C11.283 17.1739 11.641 17.0469 11.9989 17.0469C12.3567 17.0469 12.7157 17.173 13.0077 17.4268C13.5997 17.9398 14.227 18.4252 14.87 18.8662C15.39 19.2222 15.9332 19.5601 16.4852 19.8701C16.6791 19.978 16.8335 19.8887 16.8915 19.8447C16.9713 19.7837 17.0555 19.6729 17.0096 19.4912L15.7557 14.5713C15.6557 14.1803 15.8362 13.773 16.1922 13.583C17.3121 12.9851 18.3728 12.267 19.3426 11.4502C19.6296 11.2082 19.9002 10.9665 20.1522 10.7275C20.2739 10.6116 20.2604 10.4776 20.2274 10.3867C20.2033 10.3196 20.1228 10.1605 19.9129 10.1475L14.7879 9.81543C14.451 9.7944 14.1571 9.5786 14.0321 9.26562L12.3211 4.96875C12.2451 4.77892 12.0869 4.75 11.9989 4.75Z" fill="black"/>
</svg>

<!-- This Source Code Form is subject to the terms of the Mozilla Public
   - License, v. 2.0. If a copy of the MPL was not distributed with this
   - file, You can obtain one at http://mozilla.org/MPL/2.0/. -->
<svg xmlns="http://www.w3.org/2000/svg" width="24" height="24" fill="none" viewBox="0 0 24 24">
    <path fill="#000" fill-rule="evenodd" d="M12 3c.864 0 1.628.52 1.948 1.322l1.506 3.783 4.573.296c.835.054 1.56.6 1.846 1.391a2.04 2.04 0 0 1-.517 2.206q-.415.395-.887.792a20 20 0 0 1-2.852 2.002l1.088 4.268a2.06 2.06 0 0 1-.75 2.174 2.13 2.13 0 0 1-2.326.163A22.6 22.6 0 0 1 12 18.869a23 23 0 0 1-3.628 2.53 2.12 2.12 0 0 1-2.327-.164 2.06 2.06 0 0 1-.75-2.174l1.088-4.268a20 20 0 0 1-3.738-2.794 2.04 2.04 0 0 1-.517-2.206 2.11 2.11 0 0 1 1.846-1.39l4.573-.297 1.506-3.784A2.09 2.09 0 0 1 12 3m-.001 1.75a.33.33 0 0 0-.322.218L9.966 9.266a.88.88 0 0 1-.756.55l-5.125.332a.35.35 0 0 0-.314.239.3.3 0 0 0 .076.34q.378.36.808.723a18.3 18.3 0 0 0 3.152 2.133c.355.19.535.598.436.988l-1.253 4.92a.32.32 0 0 0 .12.354.36.36 0 0 0 .405.025 21 21 0 0 0 3.476-2.443 1.53 1.53 0 0 1 2.017 0 21 21 0 0 0 3.477 2.443.36.36 0 0 0 .407-.025.32.32 0 0 0 .118-.354l-1.254-4.92a.874.874 0 0 1 .436-.988 18.2 18.2 0 0 0 3.96-2.856.3.3 0 0 0 .075-.34.35.35 0 0 0-.314-.24l-5.125-.332a.88.88 0 0 1-.756-.55l-1.71-4.296a.33.33 0 0 0-.323-.219" clip-rule="evenodd" />
</svg>
